X:770
L:1/8
Q:1/8=110
M:4/4
K:Emin
 d^c |: B E3 BAFB | ABde fded | B E3 BAFA | BFAF EFGA | B3 B{^c} BAFB | ABde fded | B E3 BAFA | 
 BFAF E3 B :| Bdef g2 fe | d B3 dBAd | Bdef g2 fe | dBAF E2 ef | g3 a gfeg | f3 g fedB | 
 ABde fded |1 BFAF EFGA :|

